src/components/atoms/Icon/icons/google-plus-large.svg

<?xml version="1.0" encoding="UTF-8"?>
<svg width="36px" height="36px" viewBox="0 0 36 36" version="1.1" xmlns="http://www.w3.org/2000/svg" xmlns:xlink="http://www.w3.org/1999/xlink">
    <!-- Generator: Sketch 49.3 (51167) - http://www.bohemiancoding.com/sketch -->
    <title>Icon/36/Social-google</title>
    <desc>Created with Sketch.</desc>
    <defs></defs>
    <g id="Icon/36/Social-google" stroke="none" stroke-width="1" fill="none" fill-rule="evenodd">
        <path d="M25.8593143,16.5112082 L23.7497143,16.5112082 L23.7497143,14.4036285 L22.0525714,14.4036285 L22.0525714,16.5112082 L19.944,16.5112082 L19.944,18.2075527 L22.0525714,18.2075527 L22.0525714,20.3161605 L23.7497143,20.3161605 L23.7497143,18.2075527 L25.8593143,18.2075527 L25.8593143,16.5112082 Z M17.9763429,19.0649778 C17.4867429,18.7185123 16.5507429,17.8765085 16.5507429,17.3809703 C16.5507429,16.7990727 16.7163429,16.5142924 17.5906286,15.8316423 C18.4865143,15.1315146 19.1211429,14.1476347 19.1211429,13.0033732 C19.1211429,11.6411571 18.5132571,10.313896 17.3746286,9.87490257 L19.0923429,9.87490257 L20.3050286,9 L14.8865143,9 C12.4580571,9 10.1725714,10.8392488 10.1725714,12.9694463 C10.1725714,15.1459078 11.8275429,16.9039376 14.2992,16.9039376 C14.4709714,16.9039376 14.6376,16.8998253 14.8011429,16.8885163 C14.6406857,17.1948864 14.5254857,17.541352 14.5254857,17.8991265 C14.5254857,18.5046701 14.8515429,18.996096 15.2629714,19.396022 C14.9523429,19.396022 14.6509714,19.4052748 14.3249143,19.4052748 C11.3153143,19.4052748 9,21.319574 9,23.3058393 C9,25.26229 11.5385143,26.4857143 14.5460571,26.4857143 C17.9763429,26.4857143 19.8709714,24.5405725 19.8709714,22.5841218 C19.8709714,21.01526 19.4081143,20.076616 17.9763429,19.0649778 Z M15.0819429,16.3518546 C13.6872,16.309703 12.3593143,14.7912176 12.1196571,12.9591654 C11.8779429,11.1271133 12.8149714,9.72480177 14.2097143,9.76592528 C15.6054857,9.80807687 16.9323429,11.2772141 17.1730286,13.1092662 C17.4137143,14.9423465 16.4777143,16.3940062 15.0819429,16.3518546 Z M14.5357714,25.6200645 C12.456,25.6200645 10.9542857,24.3051404 10.9542857,22.7239417 C10.9542857,21.1756417 12.8170286,19.8853917 14.8968,19.9080097 C15.3822857,19.9141782 15.8348571,19.9912848 16.2452571,20.1239081 C17.3736,20.909367 18.1830857,21.3514447 18.4114286,22.246909 C18.4546286,22.4278524 18.4782857,22.6139363 18.4782857,22.8051606 C18.4782857,24.3863594 17.46,25.6200645 14.5357714,25.6200645 Z" id="Fill-4" fill="#FEFEFE"></path>
    </g>
</svg>

<svg width="36" height="36" xmlns="http://www.w3.org/2000/svg"><path d="M25.86 16.511h-2.11v-2.107h-1.697v2.107h-2.109v1.697h2.109v2.108h1.697v-2.108h2.11V16.51zm-7.884 2.554c-.49-.346-1.425-1.188-1.425-1.684 0-.582.165-.867 1.04-1.55.896-.7 1.53-1.683 1.53-2.828 0-1.362-.608-2.69-1.746-3.128h1.717L20.305 9h-5.418c-2.429 0-4.714 1.84-4.714 3.97 0 2.176 1.655 3.934 4.126 3.934.172 0 .339-.004.502-.015-.16.306-.276.652-.276 1.01 0 .606.327 1.097.738 1.497-.31 0-.612.01-.938.01-3.01 0-5.325 1.914-5.325 3.9 0 1.956 2.539 3.18 5.546 3.18 3.43 0 5.325-1.945 5.325-3.902 0-1.569-.463-2.507-1.895-3.519zm-2.894-2.713c-1.395-.042-2.723-1.56-2.962-3.393-.242-1.832.695-3.234 2.09-3.193 1.395.042 2.722 1.511 2.963 3.343.24 1.833-.695 3.285-2.091 3.243zm-.546 9.268c-2.08 0-3.582-1.315-3.582-2.896 0-1.548 1.863-2.839 3.943-2.816.485.006.938.083 1.348.216 1.129.785 1.938 1.227 2.166 2.123.044.18.067.367.067.558 0 1.581-1.018 2.815-3.942 2.815z" fill="#FEFEFE" fill-rule="evenodd"/></svg>
